;FLAVOR:UltiGCode
;TIME:2712
;MATERIAL:3277
;MATERIAL2:0
;NOZZLE_DIAMETER:0.4
;Generated with Cura_SteamEngine 3.1.0
M82 ; absolute extrusion mode

;LAYER_COUNT:219
;LAYER:0
M107
G0 F3600 X99.367 Y101.185 Z0.3
;TYPE:SKIRT
G1 F1800 X99.953 Y100.655 E0.09481
G1 X100.589 Y100.188 E0.1895
G1 X101.269 Y99.787 E0.28423
G1 X101.987 Y99.457 E0.37906
G1 X102.734 Y99.202 E0.47378
G1 X103.503 Y99.023 E0.56852
G1 X104.287 Y98.923 E0.66336
G1 X104.882 Y98.9 E0.73482
G1 X127.745 Y98.9 E3.47838
G1 X128.534 Y98.94 E3.57318
G1 X129.314 Y99.059 E3.66786
G1 X130.079 Y99.257 E3.76269
G1 X130.819 Y99.531 E3.85738
G1 X131.528 Y99.879 E3.95216
G1 X132.199 Y100.297 E4.04702
G1 X132.823 Y100.78 E4.14171
G1 X133.26 Y101.185 E4.21321
G1 X133.377 Y101.302 E4.23306
G1 X133.907 Y101.888 E4.32788
G1 X134.374 Y102.524 E4.42256
G1 X134.775 Y103.204 E4.5173
G1 X135.105 Y103.922 E4.61212
G1 X135.36 Y104.669 E4.70684
G1 X135.539 Y105.438 E4.80159
G1 X135.639 Y106.222 E4.89643
G1 X135.662 Y106.817 E4.96788
G1 X135.662 Y116.183 E6.0918
G1 X135.622 Y116.972 E6.1866
G1 X135.503 Y117.752 E6.28129
G1 X135.305 Y118.517 E6.37611
G1 X135.031 Y119.257 E6.4708
G1 X134.683 Y119.966 E6.56558
G1 X134.265 Y120.637 E6.66045
G1 X133.782 Y121.261 E6.75514
G1 X133.377 Y121.698 E6.82663
G1 X133.26 Y121.815 E6.84649
G1 X132.674 Y122.345 E6.9413
G1 X132.038 Y122.812 E7.03599
G1 X131.358 Y123.213 E7.13072
G1 X130.64 Y123.543 E7.22555
G1 X129.893 Y123.798 E7.32026
G1 X129.124 Y123.977 E7.41501
G1 X128.34 Y124.077 E7.50985
G1 X127.745 Y124.1 E7.58131
G1 X104.883 Y124.1 E10.32475
G1 X104.094 Y124.06 E10.41955
G1 X103.314 Y123.941 E10.51423
G1 X102.549 Y123.743 E10.60906
G1 X101.809 Y123.469 E10.70375
G1 X101.1 Y123.121 E10.79852
G1 X100.429 Y122.703 E10.89339
G1 X99.805 Y122.22 E10.98808
G1 X99.368 Y121.815 E11.05958
G1 X99.251 Y121.698 E11.07943
G1 X98.721 Y121.112 E11.17425
G1 X98.254 Y120.476 E11.26893
G1 X97.853 Y119.796 E11.36367
G1 X97.523 Y119.078 E11.45849
G1 X97.268 Y118.331 E11.55321
G1 X97.089 Y117.562 E11.64796
G1 X96.989 Y116.778 E11.7428
G1 X96.966 Y116.184 E11.81413
G1 X96.965 Y106.818 E12.93805
G1 X97.005 Y106.029 E13.03285
G1 X97.124 Y105.249 E13.12754
G1 X97.322 Y104.484 E13.22236
G1 X97.596 Y103.743 E13.31717
G1 X97.944 Y103.034 E13.41194
G1 X98.361 Y102.364 E13.50664
G1 X98.844 Y101.739 E13.60143
G1 X99.25 Y101.302 E13.67301
G1 X99.367 Y101.185 E13.69286
G0 F3600 X99.649 Y101.467
G1 F1800 X100.221 Y100.953 E13.78514
G1 X100.843 Y100.5 E13.87748
G1 X101.508 Y100.114 E13.96975
G1 X102.21 Y99.799 E14.06208
G1 X102.941 Y99.559 E14.15441
G1 X103.692 Y99.396 E14.24663
G1 X104.457 Y99.312 E14.33898
G1 X104.882 Y99.3 E14.39
G1 X127.745 Y99.3 E17.13356
G1 X128.513 Y99.34 E17.22585
G1 X129.273 Y99.459 E17.31816
G1 X130.016 Y99.657 E17.41043
G1 X130.735 Y99.931 E17.50276
G1 X131.421 Y100.278 E17.59501
G1 X132.068 Y100.694 E17.68732
G1 X132.668 Y101.175 E17.7796
G1 X132.978 Y101.467 E17.8307
G1 X133.095 Y101.584 E17.85056
G1 X133.609 Y102.156 E17.94284
G1 X134.062 Y102.778 E18.03518
G1 X134.448 Y103.443 E18.12744
G1 X134.763 Y104.145 E18.21978
G1 X135.003 Y104.876 E18.3121
G1 X135.166 Y105.627 E18.40432
G1 X135.25 Y106.392 E18.49667
G1 X135.262 Y106.817 E18.54769
G1 X135.262 Y116.183 E19.67161
G1 X135.222 Y116.951 E19.7639
G1 X135.103 Y117.711 E19.85621
G1 X134.905 Y118.454 E19.94848
G1 X134.631 Y119.173 E20.04081
G1 X134.284 Y119.859 E20.13307
G1 X133.868 Y120.506 E20.22537
G1 X133.387 Y121.106 E20.31765
G1 X133.095 Y121.416 E20.36875
G1 X132.978 Y121.533 E20.38861
G1 X132.406 Y122.047 E20.48089
G1 X131.784 Y122.5 E20.57323
G1 X131.119 Y122.886 E20.6655
G1 X130.417 Y123.201 E20.75783
G1 X129.686 Y123.441 E20.85016
G1 X128.935 Y123.604 E20.94237
G1 X128.17 Y123.688 E21.03473
G1 X127.745 Y123.7 E21.08575
G1 X104.883 Y123.7 E23.82919
G1 X104.115 Y123.66 E23.92147
G1 X103.355 Y123.541 E24.01378
G1 X102.612 Y123.343 E24.10605
G1 X101.893 Y123.069 E24.19839
G1 X101.207 Y122.722 E24.29064
G1 X100.56 Y122.306 E24.38294
G1 X99.96 Y121.825 E24.47522
G1 X99.65 Y121.533 E24.52633
G1 X99.533 Y121.416 E24.54618
G1 X99.019 Y120.844 E24.63846
G1 X98.566 Y120.222 E24.7308
G1 X98.18 Y119.557 E24.82307
G1 X97.865 Y118.855 E24.9154
G1 X97.625 Y118.124 E25.00773
G1 X97.462 Y117.373 E25.09995
G1 X97.378 Y116.608 E25.1923
G1 X97.366 Y116.184 E25.2432
G1 X97.365 Y106.818 E26.36712
G1 X97.405 Y106.05 E26.4594
G1 X97.524 Y105.29 E26.55172
G1 X97.722 Y104.547 E26.64399
G1 X97.996 Y103.828 E26.73632
G1 X98.343 Y103.141 E26.82868
G1 X98.759 Y102.494 E26.92098
G1 X99.24 Y101.894 E27.01326
G1 X99.532 Y101.584 E27.06437
G1 X99.649 Y101.467 E27.08422
G0 F3600 X99.932 Y101.75
G1 F1800 X100.489 Y101.25 E27.17404
G1 X101.095 Y100.813 E27.2637
G1 X101.745 Y100.442 E27.35351
G1 X102.431 Y100.143 E27.44331
G1 X103.145 Y99.919 E27.53311
G1 X103.878 Y99.772 E27.62282
G1 X104.882 Y99.7 E27.74361
G1 X127.745 Y99.7 E30.48717
G1 X128.492 Y99.74 E30.57694
G1 X129.23 Y99.859 E30.66664
G1 X129.952 Y100.057 E30.75648
G1 X130.648 Y100.33 E30.84619
G1 X131.311 Y100.677 E30.93599
G1 X131.934 Y101.092 E31.02582
G1 X132.695 Y101.75 E31.14654
G1 X132.812 Y101.867 E31.1664
G1 X133.312 Y102.424 E31.25622
G1 X133.749 Y103.03 E31.34587
G1 X134.12 Y103.68 E31.43568
G1 X134.419 Y104.366 E31.52548
G1 X134.643 Y105.08 E31.61528
G1 X134.79 Y105.813 E31.70499
G1 X134.862 Y106.817 E31.82578
G1 X134.862 Y116.183 E32.9497
G1 X134.822 Y116.93 E33.03947
G1 X134.703 Y117.668 E33.12917
G1 X134.505 Y118.39 E33.21901
G1 X134.232 Y119.086 E33.30873
G1 X133.885 Y119.749 E33.39853
G1 X133.47 Y120.372 E33.48836
G1 X132.812 Y121.133 E33.60908
G1 X132.695 Y121.25 E33.62893
G1 X132.138 Y121.75 E33.71875
G1 X131.532 Y122.187 E33.80841
G1 X130.882 Y122.558 E33.89822
G1 X130.196 Y122.857 E33.98802
G1 X129.482 Y123.081 E34.07782
G1 X128.749 Y123.228 E34.16753
G1 X127.745 Y123.3 E34.28832
G1 X104.883 Y123.3 E37.03176
G1 X104.136 Y123.26 E37.12153
G1 X103.398 Y123.141 E37.21123
G1 X102.676 Y122.943 E37.30107
G1 X101.98 Y122.67 E37.39078
G1 X101.317 Y122.323 E37.48058
G1 X100.694 Y121.908 E37.57041
G1 X99.933 Y121.25 E37.69113
G1 X99.816 Y121.133 E37.71099
G1 X99.316 Y120.576 E37.80081
G1 X98.879 Y119.97 E37.89046
G1 X98.508 Y119.32 E37.98028
G1 X98.209 Y118.634 E38.07008
G1 X97.985 Y117.92 E38.15987
G1 X97.838 Y117.187 E38.24958
G1 X97.766 Y116.184 E38.37025
G1 X97.765 Y106.818 E39.49417
G1 X97.805 Y106.071 E39.58394
G1 X97.924 Y105.332 E39.67376
G1 X98.122 Y104.611 E39.76349
G1 X98.395 Y103.914 E39.85331
G1 X98.741 Y103.251 E39.94306
G1 X99.156 Y102.629 E40.03279
G1 X99.815 Y101.867 E40.15368
G1 X99.932 Y101.75 E40.17353
G0 F3600 X100.215 Y102.033
G1 F1800 X100.756 Y101.549 E40.26064
G1 X101.347 Y101.126 E40.34786
G1 X101.981 Y100.772 E40.43499
G1 X102.65 Y100.489 E40.52216
G1 X103.346 Y100.281 E40.60933
G1 X104.061 Y100.151 E40.69654
G1 X104.882 Y100.1 E40.79525
G1 X127.745 Y100.1 E43.53881
G1 X128.47 Y100.14 E43.62594
G1 X129.187 Y100.259 E43.71315
G1 X129.886 Y100.457 E43.80033
G1 X130.559 Y100.73 E43.88749
G1 X131.198 Y101.075 E43.97463
G1 X131.795 Y101.489 E44.06181
G1 X132.412 Y102.033 E44.16052
G1 X132.529 Y102.15 E44.18037
G1 X133.013 Y102.691 E44.26748
G1 X133.436 Y103.282 E44.3547
G1 X133.79 Y103.916 E44.44183
G1 X134.073 Y104.585 E44.529
G1 X134.281 Y105.281 E44.61617
G1 X134.411 Y105.996 E44.70338
G1 X134.462 Y106.817 E44.80209
G1 X134.462 Y116.183 E45.92601
G1 X134.422 Y116.908 E46.01314
G1 X134.303 Y117.625 E46.10035
G1 X134.105 Y118.324 E46.18753
G1 X133.832 Y118.997 E46.27469
G1 X133.487 Y119.636 E46.36183
G1 X133.073 Y120.233 E46.44901
G1 X132.529 Y120.85 E46.54772
G1 X132.412 Y120.967 E46.56757
G1 X131.871 Y121.451 E46.65468
G1 X131.28 Y121.874 E46.7419
G1 X130.646 Y122.228 E46.82903
G1 X129.977 Y122.511 E46.9162
G1 X129.281 Y122.719 E47.00337
G1 X128.566 Y122.849 E47.09058
G1 X127.745 Y122.9 E47.18929
G1 X104.883 Y122.9 E49.93273
G1 X104.158 Y122.86 E50.01986
G1 X103.441 Y122.741 E50.10707
G1 X102.742 Y122.543 E50.19426
G1 X102.069 Y122.27 E50.28141
G1 X101.43 Y121.925 E50.36855
G1 X100.833 Y121.511 E50.45573
G1 X100.216 Y120.967 E50.55444
G1 X100.099 Y120.85 E50.57429
G1 X99.615 Y120.309 E50.6614
G1 X99.192 Y119.718 E50.74862
G1 X98.838 Y119.084 E50.83575
G1 X98.555 Y118.415 E50.92292
G1 X98.347 Y117.719 E51.01009
G1 X98.217 Y117.004 E51.0973
G1 X98.166 Y116.184 E51.19589
G1 X98.165 Y106.818 E52.31981
G1 X98.205 Y106.092 E52.40706
G1 X98.324 Y105.376 E52.49416
G1 X98.522 Y104.677 E52.58134
G1 X98.795 Y104.004 E52.66849
G1 X99.14 Y103.365 E52.75563
G1 X99.553 Y102.768 E52.84274
G1 X100.098 Y102.15 E52.94162
G1 X100.215 Y102.033 E52.96148
G0 F3600 X100.498 Y102.316
G1 F1800 X101.023 Y101.847 E53.04595
G1 X101.598 Y101.441 E53.13042
G1 X102.216 Y101.103 E53.21495
G1 X102.867 Y100.836 E53.29938
G1 X103.545 Y100.646 E53.38388
G1 X104.24 Y100.533 E53.46837
G1 X104.882 Y100.5 E53.54551
G1 X127.745 Y100.5 E56.28907
G1 X128.448 Y100.54 E56.37357
G1 X129.142 Y100.659 E56.45807
G1 X129.817 Y100.857 E56.54248
G1 X130.466 Y101.129 E56.62692
G1 X131.08 Y101.474 E56.71144
G1 X131.651 Y101.885 E56.79586
G1 X132.129 Y102.316 E56.87309
G1 X132.246 Y102.433 E56.89295
G1 X132.715 Y102.958 E56.97743
G1 X133.121 Y103.533 E57.06189
G1 X133.459 Y104.151 E57.14642
G1 X133.726 Y104.802 E57.23086
G1 X133.916 Y105.48 E57.31535
G1 X134.029 Y106.175 E57.39985
G1 X134.062 Y106.817 E57.47699
G1 X134.062 Y116.183 E58.60091
G1 X134.022 Y116.886 E58.6854
G1 X133.903 Y117.58 E58.7699
G1 X133.705 Y118.255 E58.85431
G1 X133.433 Y118.904 E58.93876
G1 X133.088 Y119.518 E59.02327
G1 X132.677 Y120.089 E59.10769
G1 X132.246 Y120.567 E59.18493
G1 X132.129 Y120.684 E59.20478
G1 X131.604 Y121.153 E59.28926
G1 X131.029 Y121.559 E59.37373
G1 X130.411 Y121.897 E59.45826
G1 X129.76 Y122.164 E59.54269
G1 X129.082 Y122.354 E59.62719
G1 X128.387 Y122.467 E59.71168
G1 X127.745 Y122.5 E59.78882
G1 X104.883 Y122.5 E62.53226
G1 X104.18 Y122.46 E62.61676
G1 X103.486 Y122.341 E62.70125
G1 X102.811 Y122.143 E62.78567
G1 X102.162 Y121.871 E62.87011
G1 X101.548 Y121.526 E62.95462
G1 X100.977 Y121.115 E63.03905
G1 X100.499 Y120.684 E63.11628
G1 X100.382 Y120.567 E63.13614
G1 X99.913 Y120.042 E63.22062
G1 X99.507 Y119.467 E63.30508
G1 X99.169 Y118.849 E63.38961
G1 X98.902 Y118.198 E63.47405
G1 X98.712 Y117.52 E63.55854
G1 X98.599 Y116.825 E63.64303
G1 X98.566 Y116.184 E63.72006
G1 X98.565 Y106.818 E64.84398
G1 X98.605 Y106.115 E64.92847
G1 X98.724 Y105.421 E65.01297
G1 X98.921 Y104.745 E65.09746
G1 X99.194 Y104.096 E65.18195
G1 X99.538 Y103.482 E65.26641
G1 X99.95 Y102.911 E65.3509
G1 X100.381 Y102.433 E65.42814
G1 X100.498 Y102.316 E65.44799
G0 F3600 X100.781 Y102.599
G1 F1800 X101.29 Y102.146 E65.52976
G1 X101.848 Y101.757 E65.61138
G1 X102.448 Y101.435 E65.6931
G1 X103.082 Y101.186 E65.77483
G1 X103.741 Y101.013 E65.85659
G1 X104.415 Y100.919 E65.93826
G1 X104.882 Y100.9 E65.99434
G1 X127.745 Y100.9 E68.7379
G1 X128.425 Y100.94 E68.81964
G1 X129.095 Y101.059 E68.9013
G1 X129.747 Y101.256 E68.98304
G1 X130.371 Y101.528 E69.06472
G1 X130.959 Y101.872 E69.14647
G1 X131.503 Y102.282 E69.22821
G1 X131.846 Y102.599 E69.28426
G1 X131.963 Y102.716 E69.30412
G1 X132.416 Y103.225 E69.38588
G1 X132.805 Y103.783 E69.46751
G1 X133.127 Y104.383 E69.54922
G1 X133.376 Y105.017 E69.63096
G1 X133.549 Y105.676 E69.71272
G1 X133.643 Y106.35 E69.79438
G1 X133.662 Y106.817 E69.85047
G1 X133.662 Y116.183 E70.97439
G1 X133.622 Y116.863 E71.05613
G1 X133.503 Y117.533 E71.13779
G1 X133.306 Y118.185 E71.21952
G1 X133.034 Y118.809 E71.3012
G1 X132.69 Y119.397 E71.38295
G1 X132.28 Y119.941 E71.4647
G1 X131.963 Y120.284 E71.52074
G1 X131.846 Y120.401 E71.5406
G1 X131.337 Y120.854 E71.62236
G1 X130.779 Y121.243 E71.70399
G1 X130.179 Y121.565 E71.7857
G1 X129.545 Y121.814 E71.86744
G1 X128.886 Y121.987 E71.9492
G1 X128.212 Y122.081 E72.03086
G1 X127.745 Y122.1 E72.08695
G1 X104.883 Y122.1 E74.83039
G1 X104.203 Y122.06 E74.91213
G1 X103.533 Y121.941 E74.99379
G1 X102.881 Y121.744 E75.07552
G1 X102.257 Y121.472 E75.15721
G1 X101.669 Y121.128 E75.23895
G1 X101.125 Y120.718 E75.3207
G1 X100.782 Y120.401 E75.37674
G1 X100.665 Y120.284 E75.3966
G1 X100.212 Y119.775 E75.47837
G1 X99.823 Y119.217 E75.55999
G1 X99.501 Y118.617 E75.64171
G1 X99.252 Y117.983 E75.72344
G1 X99.079 Y117.324 E75.8052
G1 X98.985 Y116.65 E75.88686
G1 X98.966 Y116.184 E75.94283
G1 X98.965 Y106.818 E77.06675
G1 X99.005 Y106.138 E77.14849
G1 X99.124 Y105.468 E77.23015
G1 X99.321 Y104.816 E77.31188
G1 X99.593 Y104.192 E77.39357
G1 X99.937 Y103.604 E77.47532
G1 X100.346 Y103.06 E77.55699
G1 X100.664 Y102.716 E77.6132
G1 X100.781 Y102.599 E77.63306
G0 F3600 X101.064 Y102.882
G1 F1800 X101.556 Y102.446 E77.71195
G1 X102.097 Y102.074 E77.79073
G1 X102.679 Y101.77 E77.86953
G1 X103.294 Y101.539 E77.94836
G1 X103.933 Y101.384 E78.02726
G1 X104.882 Y101.3 E78.14159
G1 X127.745 Y101.3 E80.88515
G1 X128.401 Y101.34 E80.96402
G1 X129.047 Y101.459 E81.04284
G1 X129.674 Y101.656 E81.12171
G1 X130.272 Y101.928 E81.20054
G1 X130.833 Y102.27 E81.27938
G1 X131.563 Y102.882 E81.3937
G1 X131.68 Y102.999 E81.41355
G1 X132.116 Y103.491 E81.49244
G1 X132.488 Y104.032 E81.57123
G1 X132.792 Y104.614 E81.65002
G1 X133.023 Y105.229 E81.72885
G1 X133.178 Y105.868 E81.80776
G1 X133.262 Y106.817 E81.92208
G1 X133.262 Y116.183 E83.046
G1 X133.222 Y116.839 E83.12487
G1 X133.103 Y117.485 E83.20369
G1 X132.906 Y118.112 E83.28256
G1 X132.634 Y118.71 E83.36139
G1 X132.292 Y119.271 E83.44024
G1 X131.68 Y120.001 E83.55455
G1 X131.563 Y120.118 E83.5744
G1 X131.071 Y120.554 E83.65329
G1 X130.53 Y120.926 E83.73208
G1 X129.948 Y121.23 E83.81087
G1 X129.333 Y121.461 E83.88971
G1 X128.694 Y121.616 E83.96861
G1 X127.745 Y121.7 E84.08293
G1 X104.883 Y121.7 E86.82637
G1 X104.227 Y121.66 E86.90524
G1 X103.581 Y121.541 E86.98406
G1 X102.954 Y121.344 E87.06293
G1 X102.356 Y121.072 E87.14177
G1 X101.795 Y120.73 E87.22061
G1 X101.065 Y120.118 E87.33492
G1 X100.948 Y120.001 E87.35478
G1 X100.512 Y119.509 E87.43366
G1 X100.14 Y118.968 E87.51245
G1 X99.836 Y118.386 E87.59124
G1 X99.605 Y117.771 E87.67008
G1 X99.45 Y117.132 E87.74898
G1 X99.366 Y116.184 E87.86319
G1 X99.365 Y106.818 E88.98711
G1 X99.405 Y106.162 E89.06597
G1 X99.524 Y105.516 E89.1448
G1 X99.721 Y104.889 E89.22366
G1 X99.992 Y104.291 E89.30245
G1 X100.334 Y103.73 E89.38129
G1 X100.947 Y102.999 E89.49577
G1 X101.064 Y102.882 E89.51563
G0 F3600 X101.346 Y103.164
G1 F1800 X101.821 Y102.747 E89.59148
G1 X102.344 Y102.392 E89.66733
G1 X102.908 Y102.106 E89.74321
G1 X103.503 Y101.894 E89.81901
G1 X104.121 Y101.758 E89.89494
G1 X104.882 Y101.7 E89.98653
G1 X127.745 Y101.7 E92.73009
G1 X128.376 Y101.74 E92.80596
G1 X128.997 Y101.859 E92.88184
G1 X129.597 Y102.056 E92.95762
G1 X130.169 Y102.327 E93.03357
G1 X130.701 Y102.667 E93.10934
G1 X131.281 Y103.164 E93.20099
G1 X131.398 Y103.281 E93.22085
G1 X131.815 Y103.756 E93.2967
G1 X132.17 Y104.279 E93.37255
G1 X132.456 Y104.843 E93.44843
G1 X132.668 Y105.438 E93.52423
G1 X132.804 Y106.056 E93.60017
G1 X132.862 Y106.817 E93.69175
G1 X132.862 Y116.183 E94.81567
G1 X132.822 Y116.814 E94.89154
G1 X132.703 Y117.435 E94.96742
G1 X132.506 Y118.035 E95.0432
G1 X132.235 Y118.607 E95.11915
G1 X131.895 Y119.139 E95.19492
G1 X131.398 Y119.719 E95.28658
G1 X131.281 Y119.836 E95.30643
G1 X130.806 Y120.253 E95.38228
G1 X130.283 Y120.608 E95.45813
G1 X129.719 Y120.894 E95.53402
G1 X129.124 Y121.106 E95.60981
G1 X128.506 Y121.242 E95.68575
G1 X127.745 Y121.3 E95.77733
G1 X104.883 Y121.3 E98.52077
G1 X104.252 Y121.26 E98.59664
G1 X103.631 Y121.141 E98.67252
G1 X103.031 Y120.944 E98.7483
G1 X102.459 Y120.673 E98.82426
G1 X101.927 Y120.333 E98.90002
G1 X101.347 Y119.836 E98.99168
G1 X101.23 Y119.719 E99.01153
G1 X100.813 Y119.244 E99.08738
G1 X100.458 Y118.721 E99.16323
G1 X100.172 Y118.157 E99.23912
G1 X99.96 Y117.562 E99.31492
G1 X99.824 Y116.944 E99.39085
G1 X99.766 Y116.184 E99.48232
G1 X99.765 Y106.818 E100.60624
G1 X99.805 Y106.187 E100.68211
G1 X99.924 Y105.566 E100.75798
G1 X100.121 Y104.965 E100.83388
G1 X100.391 Y104.394 E100.90967
G1 X100.732 Y103.861 E100.9856
G1 X101.229 Y103.281 E101.07726
G1 X101.346 Y103.164 E101.09712
G0 F3600 X101.629 Y103.447
G1 F1800 X102.085 Y103.048 E101.16983
