;FLAVOR:UltiGCode
;TIME:12634
;MATERIAL:37605
;MATERIAL2:0
;NOZZLE_DIAMETER:0.4
;Generated with Cura_SteamEngine 3.1.0
M82 ; absolute extrusion mode

;LAYER_COUNT:182
;LAYER:0
M107
G0 F3600 X63.7 Y65.7 Z0.3
;TYPE:SKIRT
G1 F1800 X64.168 Y65.261 E0.077
G1 X64.293 Y65.153 E0.09682
G1 X64.915 Y64.667 E0.19155
G1 X65.584 Y64.248 E0.28627
G1 X66.292 Y63.897 E0.3811
G1 X67.032 Y63.621 E0.47588
G1 X67.795 Y63.42 E0.57056
G1 X68.576 Y63.298 E0.66542
G1 X69.364 Y63.255 E0.76012
G1 X69.914 Y63.273 E0.82615
G1 X91.393 Y64.715 E3.40943
G1 X92.178 Y64.807 E3.50428
G1 X92.949 Y64.979 E3.59907
G1 X93.698 Y65.227 E3.69375
G1 X94.419 Y65.55 E3.78856
G1 X95.103 Y65.945 E3.88334
G1 X95.744 Y66.406 E3.97809
G1 X96.335 Y66.93 E4.07287
G1 X96.869 Y67.511 E4.16756
G1 X97.343 Y68.143 E4.26236
G1 X97.75 Y68.82 E4.35715
G1 X98.086 Y69.534 E4.45185
G1 X98.244 Y69.951 E4.50536
G1 X98.33 Y70.2 E4.53697
G1 X98.549 Y70.958 E4.63165
G1 X98.691 Y71.735 E4.72644
G1 X98.754 Y72.522 E4.82118
G1 X98.736 Y73.312 E4.916
G1 X98.639 Y74.095 E5.01068
G1 X98.464 Y74.865 E5.10544
G1 X98.211 Y75.613 E5.20019
G1 X97.884 Y76.332 E5.29498
G1 X97.486 Y77.014 E5.38973
G1 X97.021 Y77.652 E5.48447
G1 X96.26 Y78.466 E5.61819
G1 X94.366 Y80.221 E5.92804
G1 X94.387 Y80.209 E5.93094
G1 X95.101 Y79.873 E6.02564
G1 X95.518 Y79.726 E6.07869
G1 X96.048 Y79.233 E6.16556
G1 X96.39 Y78.708 E6.24074
G1 X96.886 Y78.094 E6.33546
G1 X97.415 Y77.558 E6.42583
G1 X97.567 Y77.418 E6.45063
G1 X98.174 Y76.913 E6.54538
G1 X98.829 Y76.472 E6.64014
G1 X99.525 Y76.1 E6.73484
G1 X100.256 Y75.799 E6.8297
G1 X101.013 Y75.575 E6.92444
G1 X101.789 Y75.428 E7.01921
G1 X102.575 Y75.36 E7.11389
G1 X103.365 Y75.372 E7.2087
G1 X103.517 Y75.39 E7.22706
G1 X103.52 Y74.783 E7.2999
G1 X103.603 Y73.998 E7.39463
G1 X103.765 Y73.225 E7.4894
G1 X104.004 Y72.473 E7.58409
G1 X104.319 Y71.748 E7.67895
G1 X104.705 Y71.059 E7.77372
G1 X105.158 Y70.413 E7.8684
G1 X105.675 Y69.816 E7.96317
G1 X105.976 Y69.518 E8.014
G1 X106.134 Y69.37 E8.03998
G1 X106.269 Y69.255 E8.06126
G1 X106.316 Y69.187 E8.07118
G1 X106.823 Y68.582 E8.1659
G1 X107.389 Y68.031 E8.26069
G1 X108.008 Y67.54 E8.3555
G1 X108.624 Y67.143 E8.44344
G1 X108.817 Y67.031 E8.47022
G1 X109.519 Y66.669 E8.565
G1 X110.254 Y66.381 E8.65973
G1 X111.015 Y66.168 E8.75456
G1 X111.793 Y66.034 E8.84929
G1 X112.581 Y65.978 E8.94409
G1 X113.37 Y66.003 E9.03882
G1 X114.153 Y66.107 E9.1336
G1 X114.921 Y66.29 E9.22834
G1 X115.667 Y66.55 E9.32314
G1 X116.382 Y66.884 E9.41784
G1 X117.11 Y67.321 E9.51974
G1 X118.446 Y68.227 E9.71344
G1 X119.076 Y68.703 E9.8082
G1 X119.841 Y69.438 E9.9355
G1 X121.164 Y70.894 E10.17158
G1 X121.665 Y71.504 E10.2663
G1 X122.259 Y72.442 E10.39953
G1 X123.215 Y74.218 E10.64157
G1 X123.554 Y74.931 E10.7363
G1 X123.907 Y75.995 E10.87083
G1 X124.392 Y77.905 E11.1073
G1 X124.396 Y77.926 E11.10987
G1 X158.824 Y80.236 E15.25052
G1 X159.608 Y80.328 E15.34524
G1 X160.379 Y80.5 E15.44004
G1 X161.129 Y80.748 E15.53483
G1 X161.849 Y81.071 E15.62952
G1 X162.534 Y81.466 E15.72441
G1 X163.174 Y81.927 E15.81906
G1 X163.765 Y82.451 E15.91384
G1 X164.203 Y82.917 E15.99059
G1 X164.42 Y83.168 E16.0304
G1 X164.905 Y83.79 E16.12505
G1 X165.325 Y84.459 E16.21984
G1 X165.676 Y85.167 E16.31467
G1 X165.953 Y85.906 E16.40937
G1 X166.153 Y86.67 E16.50414
G1 X166.276 Y87.45 E16.5989
G1 X166.319 Y88.239 E16.69372
G1 X166.301 Y88.792 E16.76012
G1 X161.947 Y153.577 E24.55185
G1 X161.855 Y154.361 E24.64658
G1 X161.683 Y155.132 E24.74137
G1 X161.434 Y155.882 E24.8362
G1 X161.111 Y156.602 E24.9309
G1 X160.717 Y157.286 E25.02562
G1 X160.255 Y157.927 E25.12044
G1 X159.731 Y158.518 E25.21522
G1 X159.33 Y158.898 E25.28151
G1 X159.089 Y159.111 E25.32011
G1 X158.472 Y159.604 E25.41488
G1 X157.808 Y160.031 E25.50962
G1 X157.104 Y160.389 E25.60439
G1 X156.368 Y160.674 E25.6991
G1 X155.606 Y160.883 E25.79392
G1 X154.827 Y161.014 E25.88871
G1 X154.04 Y161.066 E25.98336
G1 X153.402 Y161.05 E26.05994
G1 X93.602 Y157.042 E33.25204
G1 X92.818 Y156.949 E33.34678
G1 X92.047 Y156.777 E33.44158
G1 X91.298 Y156.529 E33.53626
G1 X90.577 Y156.206 E33.63106
G1 X89.893 Y155.812 E33.72578
G1 X89.252 Y155.35 E33.8206
G1 X88.661 Y154.826 E33.91538
G1 X88.234 Y154.372 E33.99017
G1 X88.017 Y154.122 E34.0299
G1 X87.53 Y153.5 E34.12469
G1 X87.108 Y152.832 E34.21951
G1 X86.757 Y152.125 E34.31423
G1 X86.478 Y151.386 E34.40902
G1 X86.276 Y150.623 E34.50373
G1 X86.152 Y149.843 E34.59851
G1 X86.107 Y149.055 E34.69322
G1 X86.125 Y148.487 E34.76142
G1 X90.282 Y86.566 E42.20866
G1 X90.374 Y85.781 E42.30351
G1 X90.546 Y85.01 E42.3983
G1 X90.794 Y84.261 E42.49298
G1 X91.117 Y83.54 E42.58779
G1 X91.512 Y82.856 E42.68257
G1 X91.709 Y82.583 E42.72297
G1 X91.246 Y82.896 E42.79003
G1 X90.551 Y83.271 E42.8848
G1 X89.822 Y83.573 E42.97949
G1 X89.066 Y83.8 E43.07421
G1 X88.29 Y83.95 E43.16905
G1 X87.504 Y84.02 E43.26375
G1 X86.695 Y84.009 E43.36084
G1 X68.615 Y82.828 E45.53506
G1 X67.83 Y82.737 E45.62989
G1 X67.059 Y82.567 E45.72463
G1 X66.309 Y82.32 E45.81939
G1 X65.588 Y81.998 E45.91414
G1 X64.903 Y81.605 E46.00891
G1 X64.261 Y81.145 E46.10369
G1 X63.67 Y80.622 E46.19839
G1 X63.221 Y80.144 E46.27709
G1 X63.113 Y80.019 E46.29691
G1 X62.627 Y79.397 E46.39163
G1 X62.208 Y78.728 E46.48636
G1 X61.857 Y78.02 E46.58118
G1 X61.581 Y77.28 E46.67596
G1 X61.38 Y76.517 E46.77064
G1 X61.258 Y75.736 E46.8655
G1 X61.215 Y74.948 E46.9602
G1 X61.232 Y74.398 E47.02623
G1 X61.484 Y70.641 E47.47809
G1 X61.577 Y69.857 E47.57283
G1 X61.749 Y69.086 E47.66762
G1 X61.997 Y68.336 E47.76241
G1 X62.32 Y67.616 E47.85711
G1 X62.715 Y66.932 E47.95189
G1 X63.176 Y66.291 E48.04664
G1 X63.7 Y65.7 E48.14142
G0 F3600 X64.084 Y65.881
G1 F1800 X64.429 Y65.564 E48.19764
G1 X64.554 Y65.456 E48.21747
G1 X65.161 Y64.984 E48.30974
G1 X65.814 Y64.577 E48.40207
G1 X66.506 Y64.241 E48.49438
G1 X67.229 Y63.978 E48.5867
G1 X67.975 Y63.792 E48.67896
G1 X68.737 Y63.684 E48.77132
G1 X69.888 Y63.672 E48.90945
G1 X91.367 Y65.114 E51.49273
G1 X92.13 Y65.205 E51.58494
G1 X92.881 Y65.375 E51.67734
G1 X93.609 Y65.622 E51.76959
G1 X94.308 Y65.943 E51.86189
G1 X94.969 Y66.336 E51.95417
G1 X95.587 Y66.794 E52.04648
G1 X96.153 Y67.315 E52.13879
G1 X96.663 Y67.891 E52.23111
G1 X97.11 Y68.517 E52.32342
G1 X97.489 Y69.186 E52.41568
G1 X97.866 Y70.081 E52.53222
G1 X97.952 Y70.33 E52.56383
G1 X98.165 Y71.069 E52.65612
G1 X98.3 Y71.826 E52.7484
G1 X98.355 Y72.594 E52.84079
G1 X98.331 Y73.362 E52.933
G1 X98.227 Y74.125 E53.02541
G1 X98.045 Y74.872 E53.11767
G1 X97.786 Y75.596 E53.20994
G1 X97.453 Y76.289 E53.3022
G1 X97.051 Y76.945 E53.39453
G1 X96.582 Y77.554 E53.48677
G1 X95.988 Y78.173 E53.58971
G1 X92.234 Y81.653 E54.20398
G1 X91.643 Y82.146 E54.29634
G1 X91.005 Y82.575 E54.38859
G1 X90.325 Y82.935 E54.48092
G1 X89.612 Y83.223 E54.5732
G1 X88.873 Y83.435 E54.66546
G1 X88.115 Y83.57 E54.75785
G1 X87.348 Y83.625 E54.85012
G1 X86.721 Y83.61 E54.92539
G1 X68.641 Y82.429 E57.09961
G1 X67.877 Y82.339 E57.19192
G1 X67.126 Y82.171 E57.28427
G1 X66.398 Y81.925 E57.37648
G1 X65.698 Y81.605 E57.46885
G1 X65.036 Y81.214 E57.56111
G1 X64.417 Y80.756 E57.65351
G1 X63.85 Y80.237 E57.74575
G1 X63.524 Y79.883 E57.8035
G1 X63.416 Y79.758 E57.82332
G1 X62.944 Y79.151 E57.91559
G1 X62.537 Y78.498 E58.00793
G1 X62.201 Y77.806 E58.10024
G1 X61.938 Y77.083 E58.19256
G1 X61.752 Y76.337 E58.28482
G1 X61.644 Y75.575 E58.37717
G1 X61.632 Y74.425 E58.51518
G1 X61.884 Y70.668 E58.96703
G1 X61.975 Y69.904 E59.05936
G1 X62.145 Y69.154 E59.15164
G1 X62.392 Y68.426 E59.2439
G1 X62.713 Y67.727 E59.3362
G1 X63.105 Y67.065 E59.42852
G1 X63.564 Y66.448 E59.5208
G1 X64.084 Y65.881 E59.61312
G0 F3600 X63.952 Y66.608
G1 F1800 X64.691 Y65.866 E59.73879
G1 X64.816 Y65.758 E59.75861
G1 X65.407 Y65.3 E59.84834
G1 X66.044 Y64.908 E59.93809
G1 X66.719 Y64.585 E60.02789
G1 X67.425 Y64.337 E60.11768
G1 X68.153 Y64.166 E60.20742
G1 X68.895 Y64.073 E60.29716
G1 X69.861 Y64.071 E60.41308
G1 X91.34 Y65.513 E62.99636
G1 X92.083 Y65.603 E63.08617
G1 X92.811 Y65.771 E63.17583
G1 X93.518 Y66.017 E63.26565
G1 X94.194 Y66.336 E63.35535
G1 X94.833 Y66.726 E63.44519
G1 X95.426 Y67.182 E63.53495
G1 X95.967 Y67.698 E63.62467
G1 X96.45 Y68.269 E63.71441
G1 X96.87 Y68.889 E63.80428
G1 X97.22 Y69.55 E63.89403
G1 X97.487 Y70.212 E63.97969
G1 X97.573 Y70.461 E64.0113
G1 X97.78 Y71.18 E64.10109
G1 X97.908 Y71.917 E64.19085
G1 X97.957 Y72.663 E64.28056
G1 X97.925 Y73.411 E64.3704
G1 X97.815 Y74.151 E64.46018
G1 X97.626 Y74.874 E64.54986
G1 X97.36 Y75.574 E64.63972
G1 X97.022 Y76.241 E64.72945
G1 X96.614 Y76.868 E64.81921
G1 X96.142 Y77.449 E64.90904
G1 X95.716 Y77.88 E64.98176
G1 X91.962 Y81.36 E65.59603
G1 X91.387 Y81.838 E65.68575
G1 X90.764 Y82.252 E65.77552
G1 X90.101 Y82.598 E65.86526
G1 X89.404 Y82.871 E65.95509
G1 X88.682 Y83.068 E66.04489
G1 X87.944 Y83.187 E66.1346
G1 X87.197 Y83.226 E66.22436
G1 X86.747 Y83.211 E66.27839
G1 X68.667 Y82.03 E68.45261
G1 X67.924 Y81.942 E68.5424
G1 X67.195 Y81.774 E68.63217
G1 X66.488 Y81.53 E68.72192
G1 X65.811 Y81.212 E68.81167
G1 X65.172 Y80.823 E68.90145
G1 X64.578 Y80.368 E68.99123
G1 X63.826 Y79.621 E69.11843
G1 X63.718 Y79.496 E69.13825
G1 X63.26 Y78.905 E69.22798
G1 X62.868 Y78.268 E69.31773
G1 X62.545 Y77.593 E69.40753
G1 X62.297 Y76.887 E69.49732
G1 X62.126 Y76.159 E69.58706
G1 X62.033 Y75.417 E69.6768
G1 X62.031 Y74.452 E69.7926
G1 X62.283 Y70.695 E70.24445
G1 X62.373 Y69.952 E70.33426
G1 X62.541 Y69.223 E70.42403
G1 X62.787 Y68.516 E70.51386
G1 X63.106 Y67.84 E70.60356
G1 X63.496 Y67.201 E70.69339
G1 X63.952 Y66.608 E70.78316
G0 F3600 X64.338 Y66.773
G1 F1800 X64.952 Y66.169 E70.88652
G1 X65.077 Y66.061 E70.90634
G1 X65.652 Y65.617 E70.99352
G1 X66.272 Y65.239 E71.08065
G1 X66.93 Y64.931 E71.16783
G1 X67.618 Y64.698 E71.255
G1 X68.327 Y64.541 E71.34214
G1 X69.05 Y64.464 E71.42939
G1 X69.834 Y64.47 E71.52347
G1 X91.313 Y65.912 E74.10676
G1 X92.034 Y66 E74.19392
G1 X92.741 Y66.167 E74.28109
G1 X93.425 Y66.411 E74.36824
G1 X94.078 Y66.729 E74.4554
G1 X94.693 Y67.116 E74.54259
G1 X95.261 Y67.569 E74.62978
G1 X95.776 Y68.081 E74.71692
G1 X96.232 Y68.647 E74.80414
G1 X96.622 Y69.259 E74.89122
G1 X96.943 Y69.911 E74.97843
G1 X97.109 Y70.342 E75.03386
G1 X97.195 Y70.591 E75.06547
G1 X97.394 Y71.29 E75.15268
G1 X97.515 Y72.006 E75.23982
G1 X97.557 Y72.731 E75.32697
G1 X97.519 Y73.457 E75.4142
G1 X97.401 Y74.173 E75.50128
G1 X97.205 Y74.873 E75.58851
G1 X96.933 Y75.547 E75.67573
G1 X96.589 Y76.186 E75.76282
G1 X96.177 Y76.784 E75.84996
G1 X95.444 Y77.586 E75.98034
G1 X91.69 Y81.066 E76.59461
G1 X91.131 Y81.53 E76.68178
G1 X90.524 Y81.929 E76.76895
G1 X89.877 Y82.26 E76.85616
G1 X89.198 Y82.517 E76.94328
G1 X88.495 Y82.698 E77.03039
G1 X87.776 Y82.801 E77.11756
G1 X86.773 Y82.812 E77.23792
G1 X68.693 Y81.631 E79.41215
G1 X67.972 Y81.544 E79.49929
G1 X67.265 Y81.378 E79.58644
G1 X66.58 Y81.135 E79.67366
G1 X65.926 Y80.819 E79.76082
G1 X65.311 Y80.433 E79.84795
G1 X64.742 Y79.981 E79.93515
G1 X64.129 Y79.36 E80.03987
G1 X64.021 Y79.235 E80.05969
G1 X63.577 Y78.66 E80.14686
G1 X63.199 Y78.04 E80.234
G1 X62.891 Y77.382 E80.32118
G1 X62.658 Y76.694 E80.40835
G1 X62.501 Y75.985 E80.49549
G1 X62.424 Y75.262 E80.58274
G1 X62.43 Y74.478 E80.67682
G1 X62.682 Y70.721 E81.12868
G1 X62.77 Y70 E81.21584
G1 X62.937 Y69.293 E81.30301
G1 X63.181 Y68.609 E81.39016
G1 X63.499 Y67.956 E81.47732
G1 X63.886 Y67.341 E81.56451
G1 X64.338 Y66.773 E81.65162
G0 F3600 X64.725 Y66.943
G1 F1800 X65.214 Y66.472 E81.73309
G1 X65.339 Y66.364 E81.75292
G1 X65.897 Y65.934 E81.83745
G1 X66.5 Y65.571 E81.92191
G1 X67.14 Y65.278 E82.00638
G1 X67.809 Y65.06 E82.09081
G1 X68.499 Y64.92 E82.1753
G1 X69.2 Y64.858 E82.25975
G1 X69.807 Y64.869 E82.3326
G1 X91.286 Y66.311 E84.91588
G1 X91.985 Y66.398 E85.00041
G1 X92.669 Y66.563 E85.08484
G1 X93.33 Y66.806 E85.16935
G1 X93.96 Y67.121 E85.25388
G1 X94.549 Y67.506 E85.33832
G1 X95.091 Y67.955 E85.42278
G1 X95.579 Y68.463 E85.50731
G1 X96.006 Y69.022 E85.59172
G1 X96.367 Y69.627 E85.67626
G1 X96.731 Y70.473 E85.78678
G1 X96.817 Y70.722 E85.81839
G1 X97.009 Y71.399 E85.90283
G1 X97.123 Y72.094 E85.98735
G1 X97.157 Y72.797 E86.07181
G1 X97.111 Y73.5 E86.15635
G1 X96.986 Y74.193 E86.24085
G1 X96.783 Y74.867 E86.32532
G1 X96.505 Y75.513 E86.40971
G1 X96.156 Y76.125 E86.49425
G1 X95.739 Y76.692 E86.57871
G1 X95.172 Y77.293 E86.67786
G1 X91.418 Y80.773 E87.29213
G1 X90.875 Y81.221 E87.3766
G1 X90.285 Y81.605 E87.46108
G1 X89.656 Y81.92 E87.5455
G1 X88.994 Y82.162 E87.63008
G1 X88.31 Y82.326 E87.71448
G1 X87.611 Y82.413 E87.79901
G1 X86.799 Y82.413 E87.89645
G1 X68.719 Y81.232 E90.07067
G1 X68.02 Y81.146 E90.15519
G1 X67.336 Y80.982 E90.23959
G1 X66.674 Y80.741 E90.32413
G1 X66.044 Y80.427 E90.4086
G1 X65.454 Y80.043 E90.49308
G1 X64.911 Y79.595 E90.57755
G1 X64.432 Y79.098 E90.66038
G1 X64.324 Y78.973 E90.68021
G1 X63.894 Y78.415 E90.76474
G1 X63.531 Y77.812 E90.8492
G1 X63.238 Y77.172 E90.93367
G1 X63.02 Y76.503 E91.0181
G1 X62.88 Y75.813 E91.10259
G1 X62.818 Y75.112 E91.18704
G1 X62.829 Y74.505 E91.25989
G1 X63.081 Y70.748 E91.71174
G1 X63.168 Y70.049 E91.79627
G1 X63.333 Y69.365 E91.8807
G1 X63.575 Y68.704 E91.96517
G1 X63.891 Y68.075 E92.04964
G1 X64.276 Y67.485 E92.13418
G1 X64.725 Y66.943 E92.21864
G0 F3600 X65.11 Y67.118
G1 F1800 X65.475 Y66.774 E92.27883
G1 X65.6 Y66.666 E92.29865
G1 X66.141 Y66.252 E92.3804
G1 X66.726 Y65.904 E92.46208
G1 X67.348 Y65.627 E92.54379
G1 X67.998 Y65.425 E92.62547
G1 X68.667 Y65.3 E92.70714
G1 X69.347 Y65.255 E92.78892
G1 X69.781 Y65.268 E92.84102
G1 X91.26 Y66.71 E95.4243
G1 X91.935 Y66.795 E95.50594
G1 X92.596 Y66.959 E95.58767
G1 X93.233 Y67.2 E95.66939
G1 X93.837 Y67.513 E95.75103
G1 X94.401 Y67.895 E95.83277
G1 X94.916 Y68.34 E95.91445
G1 X95.375 Y68.843 E95.99616
G1 X95.772 Y69.396 E96.07785
G1 X96.102 Y69.992 E96.1596
G1 X96.353 Y70.604 E96.23898
G1 X96.439 Y70.853 E96.27059
G1 X96.623 Y71.508 E96.35223
G1 X96.729 Y72.181 E96.43399
G1 X96.756 Y72.861 E96.51565
G1 X96.702 Y73.54 E96.59739
G1 X96.57 Y74.208 E96.6791
G1 X96.36 Y74.855 E96.76073
G1 X96.075 Y75.474 E96.8425
G1 X95.72 Y76.055 E96.92421
G1 X95.3 Y76.59 E97.00583
G1 X94.9 Y77 E97.07456
G1 X91.146 Y80.48 E97.68883
G1 X90.62 Y80.912 E97.77051
G1 X90.048 Y81.28 E97.85212
G1 X89.436 Y81.579 E97.93386
G1 X88.793 Y81.804 E98.01561
G1 X88.128 Y81.952 E98.09736
G1 X87.451 Y82.021 E98.17902
G1 X86.825 Y82.014 E98.25415
G1 X68.745 Y80.833 E100.42837
G1 X68.069 Y80.748 E100.51013
G1 X67.408 Y80.586 E100.5918
G1 X66.771 Y80.347 E100.67344
G1 X66.166 Y80.034 E100.75518
G1 X65.601 Y79.653 E100.83696
G1 X65.085 Y79.209 E100.91864
G1 X64.734 Y78.837 E100.98002
G1 X64.626 Y78.712 E100.99984
G1 X64.212 Y78.171 E101.08159
G1 X63.864 Y77.586 E101.16327
G1 X63.587 Y76.964 E101.24498
G1 X63.385 Y76.314 E101.32666
G1 X63.26 Y75.645 E101.40833
G1 X63.215 Y74.965 E101.4901
G1 X63.228 Y74.532 E101.54209
G1 X63.48 Y70.775 E101.99394
G1 X63.565 Y70.099 E102.0757
G1 X63.729 Y69.438 E102.15742
G1 X63.97 Y68.801 E102.23915
G1 X64.283 Y68.197 E102.32079
G1 X64.665 Y67.633 E102.40253
G1 X65.11 Y67.118 E102.4842
G0 F3600 X65.737 Y67.077
G1 F1800 X65.862 Y66.969 E102.50403
G1 X66.384 Y66.57 E102.58287
G1 X66.951 Y66.238 E102.66172
G1 X67.554 Y65.978 E102.74052
G1 X68.184 Y65.792 E102.81934
G1 X68.832 Y65.684 E102.89818
G1 X69.754 Y65.667 E103.00883
G1 X91.233 Y67.109 E105.59212
G1 X91.884 Y67.193 E105.67088
G1 X92.521 Y67.355 E105.74976
G1 X93.133 Y67.594 E105.8286
G1 X93.712 Y67.905 E105.90747
G1 X94.248 Y68.284 E105.98624
G1 X94.735 Y68.725 E106.06508
G1 X95.165 Y69.222 E106.14395
G1 X95.53 Y69.768 E106.22276
G1 X95.827 Y70.354 E106.30159
G1 X95.975 Y70.734 E106.35053
G1 X96.061 Y70.983 E106.38214
G1 X96.237 Y71.616 E106.46098
G1 X96.336 Y72.266 E106.53988
G1 X96.354 Y72.922 E106.61863
G1 X96.293 Y73.576 E106.69745
G1 X96.152 Y74.218 E106.77633
G1 X95.935 Y74.838 E106.85515
G1 X95.644 Y75.427 E106.93399
G1 X95.284 Y75.977 E107.01287
G1 X94.628 Y76.706 E107.13056
G1 X90.874 Y80.186 E107.74482
G1 X90.366 Y80.603 E107.82369
G1 X89.811 Y80.954 E107.90249
G1 X89.218 Y81.236 E107.98129
G1 X88.594 Y81.444 E108.06022
G1 X87.95 Y81.574 E108.13906
G1 X87.295 Y81.625 E108.21789
G1 X86.851 Y81.615 E108.27119
